X:99
T: ES GEHT BEI GEDAEMPFTER TROMMEL KLANG
N: B0586
O: Europa, Mitteleuropa, Deutschland
R: Staende -, Soldaten - Lied, Klage, Tod
M: 4/4
L: 1/16
K: Eb
E2 | E4E3EE4G4 | F4F3GF4z2
F2 | F4F3FF4A3A | G4G3AG4z2
E2 | c4c3ce4d2c2 | B2A2G3AB4z2
B2 | B4A2G2c2B2A2G2 | F4G2A2G4z2
B2 | e4B3eg4f3e | d4e3fe4z2

@@@ Tune index: 2317
